!!!!SEGMENT: pl-wnifc--6435-n--003_stefani-jozef--mazurek.krn
!!!cenid: 18xx:3941
!!!COM: Damse, Józef
!!!COM-rismID: pe30008765
!!!CDT: 1789-1852
!!!CNT:
!!!OTL: Mazurek
!!!PDT: 1825
!!!AGN:
!!!SMS-siglum: PL-Wnifc
!!!SMS-shelfmark: 6435/n
!!!SMS-shelfwork: 003 W
!!!SMS-variant:
!!!SMS-altvar:
!!!NIFC-rismSourceID: 1001011499
!!!NIFC-rismChildID: 1001011571
!!!NIFC-islandoraID: nifc:212718
!!!URL-pdf-islandora: https://repozytorium.nifc.pl/islandora/object/nifc:212718/datastream/PDF/view
!!!URL-scan: https://polish.musicsources.pl/pl/lokalizacje/galeria/druki-muzyczne/16854 @EN{Scan on Polish Music Sources Website} @PL{Skany w portalu Dziedzictwo Muzyki Polskiej w otwartym dostępie}
!!!IIIF:
!!!ONB-nifc: UWAGA: str. 5
!!!AIN: 2 piano
!!!key: F
**kern	**kern
*part2	*part1
*staff2	*staff1
*I"Piano	*I"Piano
*Ipiano	*Ipiano
*ICklav	*ICklav
*clefF4	*clefG2
*k[b-]	*k[b-]
*F:	*F:
*M3/8	*M3/8
=1	=1
!LO:TX:t=P:problem:mixed beam	!
8FF/L	16f/LL
.	16g/
8F\ 8A 8c	16a/
.	16b-/
8F\J 8A 8c	16cc/
.	16dd/JJ
=2	=2
16FF/	16cc\
16r	16r
4FF/ 4AA 4C 4F	4cc\ 4ff 4aa
=3	=3
!LO:TX:t=P:problem:mixed beam	!
8FF/L	16f/LL
.	16g/
8F\ 8A 8c	16a/
.	16b-/
8F\J 8A 8c	16cc/
.	16dd/JJ
=4	=4
!LO:TX:t=P:problem:mixed beam	!
8FF/L	32bn\LLL
.	32cc\
.	32dd\
.	32cc\JJJ
8F\ 8A 8c	8ff\L
8F\J 8A 8c	16aa\L
.	16ccc\JJ
*clefG2	*
=5	=5
*tremolo	*
!	!LO:TUP:a:problem:klamra łukowa
8B-/L 8d 8g	24ddd\LL
.	24eee\
.	24ddd\JJ
8B-/ 8d 8g	16gg\LL
.	16aa\
8B-/J 8d 8g	16bb-\
.	16ccc\JJ
=6	=6
!	!LO:TUP:a:problem:klamra łukowa
8B-/L 8d 8g	24ddd\LL
.	24eee\
.	24ddd\JJ
8B-/ 8d 8g	8bb-\L
8B-/J 8d 8g	16aa\L
.	16gg\JJ
*clefF4	*
=7	=7
*Xtremolo	*
8AA\L	16ff\LL
.	16ee\
8G\ 8B-	16gg\
.	16cc\
8G\J 8B-	16dd\
.	16ee\JJ
=8	=8
8F\ 8A	16gg\LL
.	16ff\JJ
4FF/ 4C 4F	4a\ 4ff
!!LO:LB:g=original
=9:|!|:	=9:|!|:
*tremolo	*
8D\L 8F 8A	16a\LL
.	16dd\
8D\ 8F 8A	16cc#X\
.	16dd\
8D\J 8F 8A	16ff\
.	16dd\JJ
=10	=10
8E\L 8G 8A	32dd\LLL
.	32cc#X\
.	32ee\
.	32dd\JJJ
8E\ 8G 8A	4cc#\
8E\J 8G 8A	.
=11	=11
8F\L 8A	16dd\LL
.	8qee/
.	16dd\JJ
8F\ 8A	16cc#X\LL
.	16dd\
8F\J 8A	16ff\
.	16dd\JJ
=12	=12
8C#X\L 8G 8A	32ff\LLL
.	32ee\
.	32gg\
.	32ff\JJJ
8C#\ 8G 8A	4ee\
8C#\J 8G 8A	.
=13	=13
8D\L 8F 8A	16dd\LL
.	16ff\
8D\ 8F 8A	16aa\
.	16ddd\
8D\J 8F 8A	16ccc#X\
.	16cccn\JJ
=14	=14
8G\L 8B- 8e	16bbn\LL
.	16bb-X\
8G\ 8B- 8e	16aa\
.	16gg\
8G\J 8B- 8e	16ff\
.	16ee\JJ
=15	=15
*Xtremolo	*
!	!LO:TUP:a:problem:klamra łukowa
8A\L 8d 8f	24ff\LL
.	24ee\
.	24ff\JJ
!	!LO:TX:t=P:problem:mixed beam
8A\ 8d 8f	16aa\LL
.	16a/
8A\J 8e 8g	16bn/
.	16cc#X/JJ
=16	=16
8d\ 8f	16ee\LL
.	16dd\JJ
4D\ 4A 4d	4f\ 4dd
==	==
*-	*-
!!!RDF**kern: > = above
!!!RDF**kern: < = below
!!!system-decoration: [(s1,s2)]
!!!ENC: Filip Voros
!!!END: 2022-07-27
!!!ENC: Urszula Świątek
!!!END: 2022-08-24
!!!YEC: Copyright 2022 Narodowy Instytut Fryderyka Chopina (https://polishscores.org)
!!!YEM: License CC-BY-4.0 (https://creativecommons.org/licenses/by/4.0)
